X: 41
T:Bourree
M:2/4
L:1/8
R:Bourree
Z:Steve Mansfield
K:C
cB2A | d4 | de2d | cBAB | cB2A | d4 | cB2G |
|1 A2B2 :|2 c8 |:cB2G | A3G/A/ | BA2G | EGAB |
cB2G | A4 |1 dB2G | A2B2 :|2 d/ed/ d/c/B | c4:|
<end>
<start>
